Newaita-dark/apps/24/com.github.jeremyvaartjes.comgen.svg

<svg height="24" viewBox="0 0 24 24" width="24" xmlns="http://www.w3.org/2000/svg" xmlns:xlink="http://www.w3.org/1999/xlink"><linearGradient id="a" gradientUnits="userSpaceOnUse" x1="11.90739" x2="11.90739" y1="21.02545225" y2="22.01773525002"><stop offset="0" stop-opacity=".27451"/><stop offset="1" stop-opacity="0"/></linearGradient><linearGradient id="b"><stop offset="0" stop-opacity=".313726"/><stop offset=".222222" stop-opacity=".27451"/><stop offset="1" stop-opacity="0"/></linearGradient><radialGradient id="c" cx="450.908936" cy="189.579361" gradientTransform="matrix(.00000013 -.0585994 -.105479 -.00000008 39.097986 47.696499)" gradientUnits="userSpaceOnUse" r="21.166656" xlink:href="#b"/><radialGradient id="d" cx="450.908936" cy="189.579361" gradientTransform="matrix(-.00000013 .0585994 .105479 .00000008 -15.28321 -5.645609)" gradientUnits="userSpaceOnUse" r="21.166656" xlink:href="#b"/><radialGradient id="e" cx="450.908936" cy="189.579361" gradientTransform="matrix(-.00000013 -.0585994 .105479 -.00000008 -15.28321 47.696499)" gradientUnits="userSpaceOnUse" r="21.166656" xlink:href="#b"/><radialGradient id="f" cx="450.908936" cy="189.579361" gradientTransform="matrix(.00000013 .0585994 -.105479 .00000008 39.097985 -5.64561)" gradientUnits="userSpaceOnUse" r="21.166656" xlink:href="#b"/><linearGradient id="g" gradientUnits="userSpaceOnUse" x1="7.93826174998" x2="7.93826174998" y1="21.02545025" y2="2.17207850005"><stop offset="0" stop-color="#e0e0e0"/><stop offset="1" stop-color="#eee"/></linearGradient><linearGradient id="h" gradientUnits="userSpaceOnUse" x1="254" x2="254" y1="233.5" y2="-168.666672"><stop offset="0" stop-color="#616161"/><stop offset="1" stop-color="#757575"/></linearGradient><path d="m4.464844 20.953125h14.882812v1.101563h-14.882812zm0 0" fill="url(#a)"/><path d="m19.347656 21.027344h1.988282v-.996094h-1.988282zm0 0" fill="url(#c)"/><path d="m4.464844 21.027344h-1.984375v.992187h1.984375zm0 0" fill="url(#d)"/><path d="m4.464844 21.027344h-1.984375v-.996094h1.984375zm0 0" fill="url(#e)"/><path d="m19.347656 21.027344h1.988282v.992187h-1.988282zm0 0" fill="url(#f)"/><path d="m3.472656 2.171875h16.867188c.550781 0 .996094.445313.996094.992187v16.867188c0 .550781-.445313.996094-.996094.996094h-16.867188c-.546875 0-.992187-.445313-.992187-.996094v-16.867188c0-.546874.445312-.992187.992187-.992187zm0 0" fill="url(#g)"/><path d="m3.472656 2.242188c-.550781 0-.992187.441406-.992187.992187v.125c0-.550781.441406-.996094.992187-.992187h16.867188c.550781-.003907.996094.441406.996094.992187v-.125c0-.550781-.445313-.992187-.996094-.992187zm0 0" fill="#f8f8f8" fill-opacity=".392157"/><path d="m3.472656 20.964844c-.550781 0-.992187-.445313-.992187-.992188v-.125c0 .550782.441406.992188.992187.992188h16.867188c.550781 0 .996094-.441406.996094-.992188v.125c0 .546875-.445313.992188-.996094.992188zm0 0" fill-opacity=".196078"/><g fill="none" stroke-linecap="round" transform="matrix(.0468795 0 0 .0468795 0 10.079087)"><path d="m74.076259-168.671091h359.798975c11.748878 0 21.247971 9.499093 21.247971 21.164646v359.798974c0 11.748878-9.499093 21.247971-21.247971 21.247971h-359.798975c-11.665552 0-21.164645-9.499093-21.164645-21.247971v-359.798974c0-11.665553 9.499093-21.164646 21.164645-21.164646zm0 0" stroke="#212121" stroke-width="3"/><path d="m158.734842 127.633947 74.076259-190.48181" stroke="url(#h)" stroke-linejoin="round" stroke-width="31"/><path d="m275.140392 127.633947 74.076259-190.48181" stroke="url(#h)" stroke-linejoin="round" stroke-width="31"/></g><path d="m10.886719 6.398438c-.292969.011718-.546875.199218-.648438.472656l-3.472656 8.929687c-.058594.144531-.070313.304688-.03125.457031.007813-.03125.019531-.0625.03125-.09375l3.472656-8.929687c.101563-.273437.355469-.460937.648438-.472656.34375-.015625.648437.210937.734375.542969.058594-.222657.007812-.457032-.136719-.636719-.144531-.179688-.367187-.28125-.597656-.269531zm5.457031 0c-.289062.011718-.546875.199218-.648438.472656l-3.472656 8.929687c-.058594.144531-.066406.300781-.027344.453125.007813-.03125.015626-.0625.027344-.089844l3.472656-8.929687c.101563-.273437.359376-.460937.648438-.472656.34375-.015625.648438.210937.734375.542969.058594-.222657.007813-.457032-.136719-.636719-.144531-.179688-.367187-.28125-.597656-.269531zm0 0" fill="#fff" fill-opacity=".392157"/><path d="m11.613281 7.347656c-.003906.019532-.011719.039063-.019531.0625l-3.472656 8.929688c-.109375.292968-.394532.484375-.707032.472656-.3125-.007812-.582031-.21875-.671874-.515625-.113282.375.09375.769531.464843.894531.371094.125.773438-.066406.914063-.433594l3.472656-8.929687c.058594-.152344.066406-.324219.019531-.480469zm0 0" fill-opacity=".235294"/><path d="m17.070312 7.347656c-.003906.019532-.011718.039063-.019531.0625l-3.472656 8.929688c-.109375.292968-.394531.480468-.707031.46875-.308594-.007813-.582032-.21875-.671875-.515625-.109375.375.097656.769531.464843.894531.371094.125.773438-.066406.914063-.429688l3.472656-8.929687c.0625-.152344.070313-.324219.019531-.480469zm0 0" fill-opacity=".235294"/><path d="m232.227823-78.513034c-6.249403.249976-11.665552 4.249594-13.832012 10.082371l-74.076259 190.48181c-2.16646 5.166173-1.249881 11.082275 2.166459 15.49852 3.499666 4.416244 9.082466 6.582704 14.581941 5.666125 5.5828-.916579 10.165696-4.666221 12.165505-9.91572l74.076259-190.48181c1.916484-4.916197 1.333206-10.498997-1.749832-14.831917-2.999714-4.249594-8.082562-6.749355-13.332061-6.499379zm0 0" fill="none" stroke="#212121" stroke-linecap="round" stroke-linejoin="round" stroke-width="3" transform="matrix(.0468795 0 0 .0468795 0 10.079087)"/><path d="m348.633374-78.513034c-6.166078.249976-11.665553 4.249594-13.832013 10.082371l-74.076259 190.48181c-2.083134 5.166173-1.249881 11.082275 2.249785 15.415194 3.499666 4.416245 8.999141 6.582705 14.581941 5.666126 5.499475-.833254 10.08237-4.582896 12.08218-9.832395l74.076259-190.48181c1.999809-4.916197 1.333206-10.498997-1.749833-14.831917-2.999714-4.249594-8.082561-6.749355-13.33206-6.499379zm0 0" fill="none" stroke="#212121" stroke-linecap="round" stroke-linejoin="round" stroke-width="3" transform="matrix(.0468795 0 0 .0468795 0 10.079087)"/></svg>

<?xml version="1.0" encoding="UTF-8"?>
<svg xmlns="http://www.w3.org/2000/svg" xmlns:xlink="http://www.w3.org/1999/xlink" width="24px" height="24px" viewBox="0 0 24 24" version="1.1">
<defs>
<linearGradient id="linear0" gradientUnits="userSpaceOnUse" x1="254" y1="233.5" x2="254" y2="254.666672" gradientTransform="matrix(0.0468795,0,0,0.0468795,-0.0000028613,10.079089)">
<stop offset="0" style="stop-color:rgb(0%,0%,0%);stop-opacity:0.27451;"/>
<stop offset="1" style="stop-color:rgb(0%,0%,0%);stop-opacity:0;"/>
</linearGradient>
<radialGradient id="radial0" gradientUnits="userSpaceOnUse" cx="450.908936" cy="189.579361" fx="450.908936" fy="189.579361" r="21.166656" gradientTransform="matrix(0.000000130628,-0.0585994,-0.105479,-0.0000000761539,39.097986,47.696499)">
<stop offset="0" style="stop-color:rgb(0%,0%,0%);stop-opacity:0.313726;"/>
<stop offset="0.222222" style="stop-color:rgb(0%,0%,0%);stop-opacity:0.27451;"/>
<stop offset="1" style="stop-color:rgb(0%,0%,0%);stop-opacity:0;"/>
</radialGradient>
<radialGradient id="radial1" gradientUnits="userSpaceOnUse" cx="450.908936" cy="189.579361" fx="450.908936" fy="189.579361" r="21.166656" gradientTransform="matrix(-0.000000130628,0.0585994,0.105479,0.0000000761539,-15.28321,-5.645609)">
<stop offset="0" style="stop-color:rgb(0%,0%,0%);stop-opacity:0.313726;"/>
<stop offset="0.222222" style="stop-color:rgb(0%,0%,0%);stop-opacity:0.27451;"/>
<stop offset="1" style="stop-color:rgb(0%,0%,0%);stop-opacity:0;"/>
</radialGradient>
<radialGradient id="radial2" gradientUnits="userSpaceOnUse" cx="450.908936" cy="189.579361" fx="450.908936" fy="189.579361" r="21.166656" gradientTransform="matrix(-0.000000130628,-0.0585994,0.105479,-0.0000000761539,-15.28321,47.696499)">
<stop offset="0" style="stop-color:rgb(0%,0%,0%);stop-opacity:0.313726;"/>
<stop offset="0.222222" style="stop-color:rgb(0%,0%,0%);stop-opacity:0.27451;"/>
<stop offset="1" style="stop-color:rgb(0%,0%,0%);stop-opacity:0;"/>
</radialGradient>
<radialGradient id="radial3" gradientUnits="userSpaceOnUse" cx="450.908936" cy="189.579361" fx="450.908936" fy="189.579361" r="21.166656" gradientTransform="matrix(0.000000130628,0.0585994,-0.105479,0.0000000761539,39.097985,-5.64561)">
<stop offset="0" style="stop-color:rgb(0%,0%,0%);stop-opacity:0.313726;"/>
<stop offset="0.222222" style="stop-color:rgb(0%,0%,0%);stop-opacity:0.27451;"/>
<stop offset="1" style="stop-color:rgb(0%,0%,0%);stop-opacity:0;"/>
</radialGradient>
<linearGradient id="linear1" gradientUnits="userSpaceOnUse" x1="169.333328" y1="233.5" x2="169.333328" y2="-168.666656" gradientTransform="matrix(0.0468795,0,0,0.0468795,0,10.079087)">
<stop offset="0" style="stop-color:rgb(87.843138%,87.843138%,87.843138%);stop-opacity:1;"/>
<stop offset="1" style="stop-color:rgb(93.333334%,93.333334%,93.333334%);stop-opacity:1;"/>
</linearGradient>
<linearGradient id="linear2" gradientUnits="userSpaceOnUse" x1="254" y1="233.5" x2="254" y2="-168.666672" gradientTransform="matrix(1,0,0,1,0,0)">
<stop offset="0" style="stop-color:rgb(38.039216%,38.039216%,38.039216%);stop-opacity:1;"/>
<stop offset="1" style="stop-color:rgb(45.882353%,45.882353%,45.882353%);stop-opacity:1;"/>
</linearGradient>
<linearGradient id="linear3" gradientUnits="userSpaceOnUse" x1="254" y1="233.5" x2="254" y2="-168.666672" gradientTransform="matrix(1,0,0,1,0,0)">
<stop offset="0" style="stop-color:rgb(38.039216%,38.039216%,38.039216%);stop-opacity:1;"/>
<stop offset="1" style="stop-color:rgb(45.882353%,45.882353%,45.882353%);stop-opacity:1;"/>
</linearGradient>
</defs>
<g id="surface1">
<path style=" stroke:none;fill-rule:nonzero;fill:url(#linear0);" d="M 4.464844 20.953125 L 19.347656 20.953125 L 19.347656 22.054688 L 4.464844 22.054688 Z M 4.464844 20.953125 "/>
<path style=" stroke:none;fill-rule:nonzero;fill:url(#radial0);" d="M 19.347656 21.027344 L 21.335938 21.027344 L 21.335938 20.03125 L 19.347656 20.03125 Z M 19.347656 21.027344 "/>
<path style=" stroke:none;fill-rule:nonzero;fill:url(#radial1);" d="M 4.464844 21.027344 L 2.480469 21.027344 L 2.480469 22.019531 L 4.464844 22.019531 Z M 4.464844 21.027344 "/>
<path style=" stroke:none;fill-rule:nonzero;fill:url(#radial2);" d="M 4.464844 21.027344 L 2.480469 21.027344 L 2.480469 20.03125 L 4.464844 20.03125 Z M 4.464844 21.027344 "/>
<path style=" stroke:none;fill-rule:nonzero;fill:url(#radial3);" d="M 19.347656 21.027344 L 21.335938 21.027344 L 21.335938 22.019531 L 19.347656 22.019531 Z M 19.347656 21.027344 "/>
<path style=" stroke:none;fill-rule:nonzero;fill:url(#linear1);" d="M 3.472656 2.171875 L 20.339844 2.171875 C 20.890625 2.171875 21.335938 2.617188 21.335938 3.164062 L 21.335938 20.03125 C 21.335938 20.582031 20.890625 21.027344 20.339844 21.027344 L 3.472656 21.027344 C 2.925781 21.027344 2.480469 20.582031 2.480469 20.03125 L 2.480469 3.164062 C 2.480469 2.617188 2.925781 2.171875 3.472656 2.171875 Z M 3.472656 2.171875 "/>
<path style=" stroke:none;fill-rule:nonzero;fill:rgb(97.254902%,97.254902%,97.254902%);fill-opacity:0.392157;" d="M 3.472656 2.242188 C 2.921875 2.242188 2.480469 2.683594 2.480469 3.234375 L 2.480469 3.359375 C 2.480469 2.808594 2.921875 2.363281 3.472656 2.367188 L 20.339844 2.367188 C 20.890625 2.363281 21.335938 2.808594 21.335938 3.359375 L 21.335938 3.234375 C 21.335938 2.683594 20.890625 2.242188 20.339844 2.242188 Z M 3.472656 2.242188 "/>
<path style=" stroke:none;fill-rule:nonzero;fill:rgb(0%,0%,0%);fill-opacity:0.196078;" d="M 3.472656 20.964844 C 2.921875 20.964844 2.480469 20.519531 2.480469 19.972656 L 2.480469 19.847656 C 2.480469 20.398438 2.921875 20.839844 3.472656 20.839844 L 20.339844 20.839844 C 20.890625 20.839844 21.335938 20.398438 21.335938 19.847656 L 21.335938 19.972656 C 21.335938 20.519531 20.890625 20.964844 20.339844 20.964844 Z M 3.472656 20.964844 "/>
<path style="fill:none;stroke-width:3;stroke-linecap:round;stroke-linejoin:miter;stroke:rgb(12.941177%,12.941177%,12.941177%);stroke-opacity:1;stroke-miterlimit:4;" d="M 74.076259 -168.671091 L 433.875234 -168.671091 C 445.624112 -168.671091 455.123205 -159.171998 455.123205 -147.506445 L 455.123205 212.292529 C 455.123205 224.041407 445.624112 233.5405 433.875234 233.5405 L 74.076259 233.5405 C 62.410707 233.5405 52.911614 224.041407 52.911614 212.292529 L 52.911614 -147.506445 C 52.911614 -159.171998 62.410707 -168.671091 74.076259 -168.671091 Z M 74.076259 -168.671091 " transform="matrix(0.0468795,0,0,0.0468795,0,10.079087)"/>
<path style="fill:none;stroke-width:31;stroke-linecap:round;stroke-linejoin:round;stroke:url(#linear2);stroke-miterlimit:4;" d="M 158.734842 127.633947 L 232.811101 -62.847863 " transform="matrix(0.0468795,0,0,0.0468795,0,10.079087)"/>
<path style="fill:none;stroke-width:31;stroke-linecap:round;stroke-linejoin:round;stroke:url(#linear3);stroke-miterlimit:4;" d="M 275.140392 127.633947 L 349.216651 -62.847863 " transform="matrix(0.0468795,0,0,0.0468795,0,10.079087)"/>
<path style=" stroke:none;fill-rule:nonzero;fill:rgb(100%,100%,100%);fill-opacity:0.392157;" d="M 10.886719 6.398438 C 10.59375 6.410156 10.339844 6.597656 10.238281 6.871094 L 6.765625 15.800781 C 6.707031 15.945312 6.695312 16.105469 6.734375 16.257812 C 6.742188 16.226562 6.753906 16.195312 6.765625 16.164062 L 10.238281 7.234375 C 10.339844 6.960938 10.59375 6.773438 10.886719 6.761719 C 11.230469 6.746094 11.535156 6.972656 11.621094 7.304688 C 11.679688 7.082031 11.628906 6.847656 11.484375 6.667969 C 11.339844 6.488281 11.117188 6.386719 10.886719 6.398438 Z M 16.34375 6.398438 C 16.054688 6.410156 15.796875 6.597656 15.695312 6.871094 L 12.222656 15.800781 C 12.164062 15.945312 12.15625 16.101562 12.195312 16.253906 C 12.203125 16.222656 12.210938 16.191406 12.222656 16.164062 L 15.695312 7.234375 C 15.796875 6.960938 16.054688 6.773438 16.34375 6.761719 C 16.6875 6.746094 16.992188 6.972656 17.078125 7.304688 C 17.136719 7.082031 17.085938 6.847656 16.941406 6.667969 C 16.796875 6.488281 16.574219 6.386719 16.34375 6.398438 Z M 16.34375 6.398438 "/>
<path style=" stroke:none;fill-rule:nonzero;fill:rgb(0%,0%,0%);fill-opacity:0.235294;" d="M 11.613281 7.347656 C 11.609375 7.367188 11.601562 7.386719 11.59375 7.410156 L 8.121094 16.339844 C 8.011719 16.632812 7.726562 16.824219 7.414062 16.8125 C 7.101562 16.804688 6.832031 16.59375 6.742188 16.296875 C 6.628906 16.671875 6.835938 17.066406 7.207031 17.191406 C 7.578125 17.316406 7.980469 17.125 8.121094 16.757812 L 11.59375 7.828125 C 11.652344 7.675781 11.660156 7.503906 11.613281 7.347656 Z M 11.613281 7.347656 "/>
<path style=" stroke:none;fill-rule:nonzero;fill:rgb(0%,0%,0%);fill-opacity:0.235294;" d="M 17.070312 7.347656 C 17.066406 7.367188 17.058594 7.386719 17.050781 7.410156 L 13.578125 16.339844 C 13.46875 16.632812 13.183594 16.820312 12.871094 16.808594 C 12.5625 16.800781 12.289062 16.589844 12.199219 16.292969 C 12.089844 16.667969 12.296875 17.0625 12.664062 17.1875 C 13.035156 17.3125 13.4375 17.121094 13.578125 16.757812 L 17.050781 7.828125 C 17.113281 7.675781 17.121094 7.503906 17.070312 7.347656 Z M 17.070312 7.347656 "/>
<path style="fill:none;stroke-width:3;stroke-linecap:round;stroke-linejoin:round;stroke:rgb(12.941177%,12.941177%,12.941177%);stroke-opacity:1;stroke-miterlimit:4;" d="M 232.227823 -78.513034 C 225.97842 -78.263058 220.562271 -74.26344 218.395811 -68.430663 L 144.319552 122.051147 C 142.153092 127.21732 143.069671 133.133422 146.486011 137.549667 C 149.985677 141.965911 155.568477 144.132371 161.067952 143.215792 C 166.650752 142.299213 171.233648 138.549571 173.233457 133.300072 L 247.309716 -57.181738 C 249.2262 -62.097935 248.642922 -67.680735 245.559884 -72.013655 C 242.56017 -76.263249 237.477322 -78.76301 232.227823 -78.513034 Z M 232.227823 -78.513034 " transform="matrix(0.0468795,0,0,0.0468795,0,10.079087)"/>
<path style="fill:none;stroke-width:3;stroke-linecap:round;stroke-linejoin:round;stroke:rgb(12.941177%,12.941177%,12.941177%);stroke-opacity:1;stroke-miterlimit:4;" d="M 348.633374 -78.513034 C 342.467296 -78.263058 336.967821 -74.26344 334.801361 -68.430663 L 260.725102 122.051147 C 258.641968 127.21732 259.475221 133.133422 262.974887 137.466341 C 266.474553 141.882586 271.974028 144.049046 277.556828 143.132467 C 283.056303 142.299213 287.639198 138.549571 289.639008 133.300072 L 363.715267 -57.181738 C 365.715076 -62.097935 365.048473 -67.680735 361.965434 -72.013655 C 358.96572 -76.263249 353.882873 -78.76301 348.633374 -78.513034 Z M 348.633374 -78.513034 " transform="matrix(0.0468795,0,0,0.0468795,0,10.079087)"/>
</g>
</svg>
